X:7666
T:Trip to Cartmell
O:england
R:Reel
M:C
A:Westmorland
N:P5 1/2
K:D
ceeg aeeg|fddf gfed|\
Bde ef/2g/2 aeeg|fd f/2g/2a/2f/2 e2d2:|
|:cAAc BGGB|cAAg aeed|\
cAAc BGGB|cAAB c/2d/2dB2:|
